src/assets/icons/5♠.svg

<svg xmlns="http://www.w3.org/2000/svg" xmlns:xlink="http://www.w3.org/1999/xlink" width="240" height="336" viewBox="-120 -168 240 336" preserveAspectRatio="none" xmlns:v="https://vecta.io/nano"><symbol id="A" viewBox="-500 -500 1000 1000" preserveAspectRatio="xMinYMid"><path d="M170-460h-345l-35 345s10-85 210-85c100 0 255 120 255 320S180 460-20 460-255 285-255 285" stroke="#000" stroke-width="80" stroke-linecap="square" stroke-miterlimit="1.5" fill="none"/></symbol><symbol id="B" viewBox="-600 -600 1200 1200" preserveAspectRatio="xMinYMid"><path d="M0-500c100 250 355 400 355 685a150 150 0 0 1-300 0 10 10 0 0 0-20 0c0 200 50 215 95 315h-260c45-100 95-115 95-315a10 10 0 0 0-20 0 150 150 0 0 1-300 0c0-285 255-435 355-685z"/></symbol><rect width="239" height="335" x="-119.5" y="-167.5" rx="12" fill="#fff" stroke="#000"/><use xlink:href="#B" height="70" width="70" x="-35" y="-35"/><use xlink:href="#A" height="32" width="32" x="-114.4" y="-156"/><use xlink:href="#B" height="26.769" width="26.769" x="-111.784" y="-119"/><use xlink:href="#B" height="70" width="70" x="-87.501" y="-135.501"/><use xlink:href="#B" height="70" width="70" x="17.501" y="-135.501"/><g transform="rotate(180)"><use xlink:href="#A" height="32" width="32" x="-114.4" y="-156"/><use xlink:href="#B" height="26.769" width="26.769" x="-111.784" y="-119"/><use xlink:href="#B" height="70" width="70" x="-87.501" y="-135.501"/><use xlink:href="#B" height="70" width="70" x="17.501" y="-135.501"/></g></svg>

<?xml version="1.0" encoding="UTF-8" standalone="no"?>
<svg xmlns="http://www.w3.org/2000/svg" xmlns:xlink="http://www.w3.org/1999/xlink" width="2.5in" height="3.5in" viewBox="-120 -168 240 336" preserveAspectRatio="none" class="card" face="5S">
   <symbol id="S5" viewBox="-500 -500 1000 1000" preserveAspectRatio="xMinYMid">
      <path d="M170 -460L-175 -460L-210 -115C-210 -115 -200 -200 0 -200C100 -200 255 -80 255 120C255 320 180 460 -20 460C-220 460 -255 285 -255 285" stroke="black" stroke-width="80" stroke-linecap="square" stroke-miterlimit="1.5" fill="none"/>
   </symbol>
   <symbol id="S" viewBox="-600 -600 1200 1200" preserveAspectRatio="xMinYMid">
      <path d="M0 -500C100 -250 355 -100 355 185A150 150 0 0 1 55 185A10 10 0 0 0 35 185C35 385 85 400 130 500L-130 500C-85 400 -35 385 -35 185A10 10 0 0 0 -55 185A150 150 0 0 1 -355 185C-355 -100 -100 -250 0 -500Z" fill="black"/>
   </symbol>
   <rect width="239" height="335" x="-119.5" y="-167.5" rx="12" ry="12" fill="white" stroke="black"/>
   <use xlink:href="#S" height="70" width="70" x="-35" y="-35"/>
   <use xlink:href="#S5" height="32" width="32" x="-114.4" y="-156"/>
   <use xlink:href="#S" height="26.769" width="26.769" x="-111.784" y="-119"/>
   <use xlink:href="#S" height="70" width="70" x="-87.501" y="-135.501"/>
   <use xlink:href="#S" height="70" width="70" x="17.501" y="-135.501"/>
   <g transform="rotate(180)">
      <use xlink:href="#S5" height="32" width="32" x="-114.4" y="-156"/>
      <use xlink:href="#S" height="26.769" width="26.769" x="-111.784" y="-119"/>
      <use xlink:href="#S" height="70" width="70" x="-87.501" y="-135.501"/>
      <use xlink:href="#S" height="70" width="70" x="17.501" y="-135.501"/>
   </g>
</svg>
